!! 00026] TT[TB
!! Eigene Aufnahme, Guangzhou, 5.5.87
!!!OTL: Ali shan de gu niang
!!!ARE: Taiwan
!! Ethnic Group: Gaoshan
!! MM, S. 357  (Quelle S. Bandprotokoll)
!!!SCT: C0960
!!!YEM: Copyright 1995, estate of Helmut Schaffrath.
**kern
*ICvox
*Ivox
*M4/4
*k[f#c#g#d#]
*E:
{8g#
16b
16g#
8f#
8g#
8b
16cc#
16b
8g#
8f#
=1
2.g#
8b
8g#
=2
8.g#
16f#
8.f#
16c#
8e
16f#
16e
8c#
8B
=3
1c#}
=4
{8cc#
8cc#
8cc#
8cc#
8b
8g#
4g#
=5
8g#
8f#
8f#
8g#
8e
8c#
4c#}
=6
{8.f#
16f#
8f#
8g#
8b
8g#
4g#
=7
8.f#
16g#
8f#
8e
16c#
16e
8c#
[4c#
=8
1c#]}
=9
{8c#
16e
16c#
8c#
8B
8f#
16g#
16f#
8e
8f#
=10
2.g#
8b
8g#
=11
8g#
8f#
8f#
8c#
8e
16f#
16e
8c#
8B
=12
1c#}
=13
{8.cc#
16cc#
8cc#
8b
8b
8g#
4g#
=14
8f#
8g#
8f#
8g#
8e
8c#
4c#}
=15
{8.f#
16f#
8f#
8g#
8b
8g#
4g#
=16
8.f#
16g#
8f#
8e
16c#
16e
8c#
[4c#
=17
1c#]}
=18
{4g#
8f#
8g#
8b
16cc#
16b
8g#
8f#
=19
1g#
=20
4.f#
8c#
8e
16f#
16e
8c#
8B
=21
1c#}
=22
{8.cc#
16cc#
8cc#
8b
8b
8g#
4g#
=23
8.f#
16g#
8.f#
16g#
8.e
16c#
4c#}
=24
{8g#
4f#
8g#
4b
8g#
8b
=25
2f#
4.g#
8b
=26
[1cc#
=27
2.cc#]
4r}
=28
{8.cc#
16cc#
8cc#
8cc#
8cc#
8ee
8ff#
8ee
=29
4cc#
8b
8g#
4cc#
8b
8ee}
=30
{4cc#
8b
8f#
8g#
8b
8b
8f#
=31
8g#
8f#
4c#
4g#
8f#
8g#}
=32
{4b
8f#
8g#
8c#
8e
8g#
16f#
16e
=33
4.c#
8c#
2c#}
=34
{8g#
16b
16g#
8f#
8g#
8b
16cc#
16b
8g#
8f#
=35
2.g#
8b
8g#
=36
4g#
16f#
16g#
16f#
16c#
8e
16f#
16e
8c#
8B
=37
1c#}
=38
{8.cc#
16cc#
8cc#
8b
8b
8g#
4g#
=39
8.f#
16g#
8.f#
16g#
8.e
16c#
4c#}
=40
{4g#
8f#
8g#
4b
8g#
8b
=41
2f#
4.g#
8b
=42
[1cc#
=43
2.cc#]
4r}
==
!!!AGN: Qingge. Gechang aiqing
!! +++EINE ZEILE WEGEN UEBERLAENGE GEAENDERT. BITTEN
!!    PHRASEN-EINTEILUNG UEBERPRUEFEN!!! *++++++++
!!    Die Saengerin Lei Huilan ist Angehoerige der Zhuang Minderheit und
!!    studiert an der Guangzhouer Musikhochschule.
!!    Aufgenommen am 5.5.87
!!!ONB: ESAC (Essen Associative Code) Database: CHINA
!!!AMT: simple quadruple
!!!AIN: vox
!!!EED: Helmut Schaffrath
!!!EEV: 1.0
*-
!!!ONB: Tied note syntax fixed by Craig Sapp, 2004/05/03/
